X: 27184
T: Miss Monaghan
R: reel
M: 4/4
K: Dmajor
|:AF|D2(3FED FA{B}AF|(3GFG BG FAAc|(3dcB (3cBA Bcde|fedf ecAF|
DAFD DAFD|GB (3BGB GB (3BGB|(3dcB (3cBA ABdB|AFEF D2:|
|:de|fa (3aga afdf|(3gfe fd edBc|(3dcB (3cBA ABde|(3fga gf ecA2|
fa (3aga afdf|(3gfe fd edBc|defg ec (3dcB|(3ABA (3GFE D2:|

